assets/ico/METRO_STATION.svg

<svg xmlns="http://www.w3.org/2000/svg" viewBox="0 0 512 512" style="height: 512px; width: 512px;"><path d="M0 0h512v512H0z" fill="#000000" fill-opacity="1"></path><g class="" transform="translate(0,0)" style=""><path d="m109.902 35.87-71.14 59.284h142.28l-71.14-59.285zm288 32-71.14 59.284h142.28l-71.14-59.285zM228.73 84.403l-108.9 90.75h217.8l-108.9-90.75zm-173.828 28.75v62h36.81l73.19-60.992v-1.008h-110zm23 14h16v18h-16v-18zm265 18v10.963l23 19.166v-16.13h16v18h-13.756l.104.087 19.098 15.914h-44.446v14h78v-39h18v39h14v-62h-110zm-194.345 48v20.08l24.095-20.08h-24.095zm28.158 0 105.1 87.582 27.087-22.574v-65.008H176.715zm74.683 14h35.735v34h-35.735v-34zm-76.714 7.74L30.37 335.153H319l-144.314-120.26zm198.046 13.51-76.857 64.047 32.043 26.704H481.63l-108.9-90.75zm-23.214 108.75.103.086 19.095 15.914h-72.248v77.467h60.435v-63.466h50v63.467h46v-93.466H349.516zm-278.614 16V476.13h126v-76.976h50v76.977h31.565V353.155H70.902zm30 30h50v50h-50v-50z" fill="#cfcfd1" fill-opacity="1"></path></g></svg>

<svg xmlns="http://www.w3.org/2000/svg" viewBox="0 0 512 512" style="height: 512px; width: 512px;"><path d="M0 0h512v512H0z" fill="#000" fill-opacity="1"></path><g class="" transform="translate(0,0)" style=""><g><path d="M109.902 35.87L38.762 95.154L181.042 95.154L109.902 35.869Z" class="selected" fill="#fff" fill-opacity="1"></path><path d="M397.902 67.87L326.762 127.154L469.042 127.154L397.902 67.869Z" class="" fill="#fff" fill-opacity="1"></path><path d="M228.73 84.403L119.83 175.153L337.63 175.153L228.73 84.403Z" class="" fill="#fff" fill-opacity="1"></path><path d="M54.902 113.153L54.902 175.153L91.712 175.153L164.902 114.161L164.902 113.153L54.902 113.153Z" class="" fill="#fff" fill-opacity="1"></path><path d="M77.902 127.153L93.902 127.153L93.902 145.153L77.902 145.153L77.902 127.153Z" class="" fill="#fff" fill-opacity="1"></path><path d="M342.902 145.153L342.902 156.116L365.902 175.282L365.902 159.152L381.902 159.152L381.902 177.152L368.146 177.152L368.25 177.239L387.348 193.153L342.902 193.153L342.902 207.153L420.902 207.153L420.902 168.153L438.902 168.153L438.902 207.153L452.902 207.153L452.902 145.153L342.902 145.153Z" class="" fill="#fff" fill-opacity="1"></path><path d="M148.557 193.153L148.557 213.233L172.652 193.153L148.557 193.153Z" class="" fill="#fff" fill-opacity="1"></path><path d="M176.715 193.153L281.815 280.735L308.902 258.161L308.902 193.153L176.715 193.153Z" class="" fill="#fff" fill-opacity="1"></path><path d="M251.398 207.153L287.133 207.153L287.133 241.153L251.398 241.153L251.398 207.153Z" class="" fill="#fff" fill-opacity="1"></path><path d="M174.684 214.893L30.37 335.153L319 335.153L174.686 214.893Z" class="" fill="#fff" fill-opacity="1"></path><path d="M372.73 228.403L295.873 292.45L327.916 319.154L481.63 319.154L372.73 228.404Z" class="" fill="#fff" fill-opacity="1"></path><path d="M349.516 337.153L349.619 337.239L368.714 353.153L296.466 353.153L296.466 430.62L356.901 430.62L356.901 367.154L406.901 367.154L406.901 430.621L452.901 430.621L452.901 337.155L349.516 337.155Z" class="" fill="#fff" fill-opacity="1"></path><path d="M70.902 353.153L70.902 476.13L196.902 476.13L196.902 399.154L246.902 399.154L246.902 476.131L278.467 476.131L278.467 353.155L70.902 353.155Z" class="" fill="#fff" fill-opacity="1"></path><path d="M100.902 383.153L150.902 383.153L150.902 433.153L100.902 433.153L100.902 383.153Z" class="" fill="#fff" fill-opacity="1"></path></g></g></svg>
